packages/icons/src/SVG/locked.svg

<svg width="12" height="12" viewBox="0 0 12 12" >
<path d="M6.5 8.91465C7.0826 8.70873 7.5 8.15311 7.5 7.5C7.5 6.67157 6.82843 6 6 6C5.17157 6 4.5 6.67157 4.5 7.5C4.5 8.15311 4.9174 8.70873 5.5 8.91465V10H6.5V8.91465Z" />
<path fill-rule="evenodd" clip-rule="evenodd" d="M2 4H0V12H12V4H10V2C10 0.895431 9.10457 0 8 0H4C2.89543 0 2 0.89543 2 2V4ZM3 2C3 1.44772 3.44772 1 4 1H8C8.55228 1 9 1.44772 9 2V4H3V2ZM1 11V5H11V11H1Z" />
</svg>

<!-- Generated by IcoMoon.io -->
<svg version="1.1" xmlns="http://www.w3.org/2000/svg" width="12" height="12" viewBox="0 0 12 12">
<title>locked</title>
<path d="M6.5 8.915c0.583-0.206 1-0.762 1-1.415 0-0.828-0.672-1.5-1.5-1.5s-1.5 0.672-1.5 1.5c0 0.653 0.417 1.209 1 1.415v1.085h1v-1.085z"></path>
<path d="M2 4h-2v8h12v-8h-2v-2c0-1.105-0.895-2-2-2h-4c-1.105 0-2 0.895-2 2v2zM3 2c0-0.552 0.448-1 1-1h4c0.552 0 1 0.448 1 1v2h-6v-2zM1 11v-6h10v6h-10z"></path>
</svg>
